src/assets/toolkit/icons/github.svg

<?xml version="1.0" encoding="UTF-8" standalone="no"?>
<svg width="24px" height="24px" viewBox="0 0 24 24" version="1.1" xmlns="http://www.w3.org/2000/svg" xmlns:xlink="http://www.w3.org/1999/xlink" xmlns:sketch="http://www.bohemiancoding.com/sketch/ns">
    <!-- Generator: Sketch 3.3.3 (12072) - http://www.bohemiancoding.com/sketch -->
    <title>github</title>
    <desc>Created with Sketch.</desc>
    <defs></defs>
    <g id="Page-1" stroke="none" stroke-width="1" fill="none" fill-rule="evenodd" sketch:type="MSPage">
        <g id="github" sketch:type="MSArtboardGroup" fill="currentColor">
            <path d="M0,12.0003683 C0,17.3014519 3.43804291,21.7995641 8.2065134,23.3863532 C8.80690015,23.4968538 9.0256914,23.1263084 9.0256914,22.8080665 C9.0256914,22.5229749 9.015378,21.768624 9.00948464,20.7674883 C5.67162896,21.4923724 4.96737162,19.1585991 4.96737162,19.1585991 C4.42149851,17.7721845 3.63473403,17.4031124 3.63473403,17.4031124 C2.54519783,16.6583382 3.71724117,16.6738083 3.71724117,16.6738083 C4.92169803,16.7585254 5.55523497,17.9106787 5.55523497,17.9106787 C6.6263544,19.7442524 8.36416096,19.2145861 9.04779152,18.9073943 C9.15681881,18.1316799 9.46695724,17.6034869 9.80950919,17.3029252 C7.14497069,17.0001535 4.3434114,15.9710243 4.3434114,11.3727248 C4.3434114,10.0621873 4.8111974,8.99106787 5.57880843,8.15199975 C5.4557844,7.84849136 5.04398539,6.62856441 5.69667577,4.97694834 C5.69667577,4.97694834 6.70444151,4.65354983 8.99622456,6.20645201 C9.95389668,5.94051383 10.9800792,5.8071764 12.0003683,5.80275638 C13.0199208,5.8071764 14.0461033,5.94051383 15.0052488,6.20645201 C17.2955585,4.65354983 18.3018509,4.97694834 18.3018509,4.97694834 C18.9560146,6.62856441 18.5442156,7.84849136 18.4211916,8.15199975 C19.1902759,8.99106787 19.6543786,10.0621873 19.6543786,11.3727248 C19.6543786,15.9820743 16.8491359,16.9964701 14.1757574,17.2940851 C14.6067098,17.6646306 14.9897787,18.3968814 14.9897787,19.5158845 C14.9897787,21.1203536 14.9757819,22.4146843 14.9757819,22.8080665 C14.9757819,23.129255 15.1916265,23.5020105 15.8008533,23.3848798 C20.5649038,21.7951441 24,17.3007152 24,12.0003683 C24,5.37254059 18.6267227,0 11.998895,0 C5.37327726,0 0,5.37254059 0,12.0003683 Z" id="octocat" sketch:type="MSShapeGroup"></path>
        </g>
    </g>
</svg>

<svg xmlns="http://www.w3.org/2000/svg" viewBox="0 0 24 24">
  <path d="M0,12A12,12,0,0,0,8.21,23.39,0.6,0.6,0,0,0,9,22.81c0-.29,0-1,0-2-3.34.72-4-1.61-4-1.61A3.18,3.18,0,0,0,3.63,17.4c-1.09-.74.08-0.73,0.08-0.73a2.52,2.52,0,0,1,1.84,1.24,2.56,2.56,0,0,0,3.49,1,2.57,2.57,0,0,1,.76-1.6C7.14,17,4.34,16,4.34,11.37A4.64,4.64,0,0,1,5.58,8.15,4.32,4.32,0,0,1,5.7,5s1-.32,3.3,1.23a11.38,11.38,0,0,1,6,0C17.3,4.65,18.3,5,18.3,5a4.31,4.31,0,0,1,.12,3.18,4.63,4.63,0,0,1,1.23,3.22c0,4.61-2.81,5.62-5.48,5.92A2.86,2.86,0,0,1,15,19.52c0,1.6,0,2.9,0,3.29a0.6,0.6,0,0,0,.83.58A12,12,0,1,0,0,12Z"/>
</svg>
